X:18
T:Ballance a Straw. WCl.18
M:C|
L:1/8
Q:1/2=70
S:William Clarke MS,Lincoln,1770.
R:.Country Dance.
O:Lincoln
A:England
Z:vmp.Barry Callaghan
K:G
“_No time sig.”GA|B2BB Bc dB|A2 AA A2 Bc|d2 cB c2 BA|G2 GG G2:|!
|:gf|e2 dd d2 GA|B2 BB B2gf|e2 dd d2 cA|AGFE D2 GA|!
B2 BB B2 gB|A2 AA A2 Bc|dgdB c2 BA|G2 GG G2:|

